X:724
T:Archers Dance. JC.019
M:6/8
L:1/8
Q:110
S:John Clare,Poet,Helpston. (1793-1864)
R:Jig
O:England
A:Northamptonshire
N:
Z:P Headford
K:G
D|GFGB2B|c2ce2e|d2dB2B|cBcB2D|GFGB2B|c2ce2e|
d2d cBA|G3G2:|!
|:b|aga f2d|g2g dgb|agaf2d|g3d2d|e2e fef|
g2gd2d|eced2B|G3G2:|]
